X:1
T:Spanking Jack
M:C
L:1/8
R:Air
S:John Rook manuscript collection (Warerton, 1840)
K:G
D2|G2 B>G c2 A>d|B2 G>E A2 F>D|G2 B>G c2 A>d|BG AF G2z2|
G2 B>G c2 A>d|B2 GE A2 FD|G2 BG c2 Ad|BG AF G2z||G|
G2 GG G2 EG|c2 GE FEDF|A2 AB cede|A2 AA GF zD|
D2 BG GFED|d2 BG G/F/E/D/ DD|G2 GG G2 Bd|AGAB G2 GA/B/|
c4E4|A4D4|G2 BG c2 A>d|B2 GE A2 FD|G2 BG c2 Ad|BGAF G2||

